X:1
T:Title
%%score { 1 | 2 }
L:1/8
M:3/4
K:F
V:1 treble nm="Grand Piano"
V:2 treble 
V:1
 z2 z2[Q:1/4=112] A2 | A2 F2 G2 |[M:15/16] A->AB- B3- B/F |[M:3/4] A2 G2 ^F2 | G4 G2 | G2 E2 F2 | %6
 G2 A3 E | G2 F3 G | A6 | A2 A2 B2 | c4 A2 | A2 B2 c2 | d6 | f2 e2 d2 | [Fc]4 [FA]2 | %15
 [EB]2 [EA]2 [EG]2 |[M:2/4] F4 |] %17
V:2
 z2 z2 C2 | C2 A,2 B,2 |[M:15/16] C->CD- D3- D/[K:bass]A, |[M:3/4] C2 B,2 A,2 | B,4 B,2 | %5
 B,2 G,2 A,2 | B,2 C3 G, | B,2 A,3 B, | C6 | [F,CF]2 [F,CF]2 [G,CE]2 | [A,CF]4 [F,CF]2 | %11
 [F,CF]2 [G,CE]2 [A,CF]2 | [B,F]6 | [B,DF]2 [B,CF]2 [B,F]2 | [C,A,]4 [C,C]2 | %15
 [C,C]2 [C,C]2 [C,B,]2 |[M:2/4] [F,A,]4 |] %17

